picto/paper-recycling.svg

<svg class="color-immutable" width="24" height="24" viewBox="0 0 24 24" fill="none" xmlns="http://www.w3.org/2000/svg"><path d="M0 22.5V1.5C0 0.675 0.675 0 1.5 0H22.5C23.325 0 24 0.675 24 1.5V22.5C24 23.325 23.325 24 22.5 24H1.5C0.675 24 0 23.325 0 22.5Z" fill="#2D327D"/><path fill-rule="evenodd" clip-rule="evenodd" d="M4.07901 9.117C4.06401 9.092 4.04901 9.067 4.03501 9.041C3.70601 8.475 3.37601 7.908 3.04701 7.342C2.98601 7.237 2.98301 7.133 3.04601 7.025C3.22001 6.73 3.39101 6.433 3.56401 6.136C3.56801 6.129 3.57201 6.121 3.57801 6.11C3.40001 6.005 3.22201 5.9 3.04401 5.795C3.04401 5.793 3.04501 5.791 3.04501 5.789C3.05401 5.789 3.06301 5.789 3.07101 5.789C3.63201 5.789 4.19301 5.789 4.75401 5.789C4.77301 5.789 4.78601 5.791 4.79801 5.81C5.08501 6.304 5.37301 6.797 5.66101 7.29C5.66401 7.295 5.66701 7.301 5.67401 7.315C5.48901 7.209 5.31101 7.107 5.13201 7.003C5.12401 7.015 5.11801 7.025 5.11301 7.035C4.79001 7.594 4.46701 8.153 4.14301 8.712C4.07301 8.833 4.04701 8.96 4.08301 9.097C4.08501 9.103 4.08401 9.109 4.08501 9.116C4.08301 9.116 4.08101 9.116 4.07901 9.117Z" fill="white"/><path fill-rule="evenodd" clip-rule="evenodd" d="M9.07204 4.072C9.25104 3.969 9.42604 3.867 9.61104 3.761C9.60404 3.777 9.60104 3.785 9.59604 3.792C9.31604 4.28 9.03604 4.768 8.75604 5.256C8.74804 5.271 8.73904 5.279 8.72004 5.279C8.15004 5.28 7.57904 5.283 7.00904 5.285C7.00404 5.285 6.99904 5.285 6.98404 5.284C7.16604 5.176 7.34104 5.074 7.51904 4.97C7.51104 4.957 7.50604 4.946 7.49904 4.935C7.18104 4.38 6.86204 3.824 6.54404 3.268C6.47204 3.142 6.37404 3.05 6.23004 3.015C6.22604 3.014 6.22304 3.011 6.21204 3.005C6.23104 3.005 6.24104 3.005 6.25204 3.005C6.89604 3.003 7.54104 3.001 8.18504 3C8.24404 3 8.30304 3 8.36104 3.009C8.44304 3.021 8.49904 3.074 8.54004 3.145C8.71404 3.449 8.88804 3.753 9.06204 4.057C9.06504 4.061 9.06804 4.065 9.07204 4.072Z" fill="white"/><path fill-rule="evenodd" clip-rule="evenodd" d="M7.88004 9.948C7.88004 10.156 7.88004 10.36 7.88004 10.564C7.87704 10.565 7.87504 10.565 7.87204 10.566C7.86704 10.559 7.86204 10.552 7.85804 10.545C7.57804 10.058 7.29704 9.572 7.01704 9.085C7.00804 9.071 7.00404 9.06 7.01404 9.043C7.30004 8.545 7.58604 8.047 7.87104 7.549C7.87304 7.546 7.87504 7.544 7.88004 7.537C7.88004 7.745 7.88004 7.95 7.88004 8.159C7.89504 8.159 7.90704 8.159 7.91904 8.159C8.56204 8.159 9.20604 8.159 9.84904 8.159C9.99204 8.159 10.118 8.115 10.221 8.014C10.224 8.011 10.228 8.008 10.24 7.999C10.23 8.017 10.225 8.027 10.22 8.037C9.89604 8.6 9.57304 9.163 9.24904 9.725C9.22004 9.775 9.19104 9.825 9.15504 9.87C9.10604 9.93 9.03604 9.951 8.96104 9.951C8.78804 9.951 8.61604 9.949 8.44304 9.949C8.26904 9.949 8.09604 9.949 7.92204 9.949C7.91004 9.948 7.89904 9.948 7.88004 9.948Z" fill="white"/><path fill-rule="evenodd" clip-rule="evenodd" d="M6.59004 8.153C6.59004 8.749 6.59004 9.341 6.59004 9.935C6.57704 9.935 6.56604 9.935 6.55404 9.935C6.13904 9.935 5.72404 9.945 5.31004 9.932C4.93604 9.921 4.65204 9.746 4.49204 9.397C4.42304 9.248 4.39004 9.091 4.41404 8.927C4.42104 8.878 4.43604 8.827 4.46004 8.785C4.57504 8.581 4.69404 8.38 4.81004 8.178C4.82104 8.159 4.83304 8.153 4.85504 8.153C5.42304 8.154 5.99004 8.153 6.55804 8.153C6.56704 8.153 6.57804 8.153 6.59004 8.153Z" fill="white"/><path fill-rule="evenodd" clip-rule="evenodd" d="M8.19904 6.31599C8.71204 6.01899 9.22404 5.72299 9.73604 5.42599C9.74404 5.43799 9.75003 5.44799 9.75603 5.45699C9.96403 5.81399 10.18 6.16699 10.378 6.52999C10.517 6.78499 10.545 7.05899 10.423 7.33499C10.339 7.52399 10.21 7.67199 10.033 7.77699C9.95704 7.82099 9.87803 7.84499 9.78903 7.84399C9.56203 7.84199 9.33404 7.84299 9.10704 7.84399C9.08904 7.84399 9.07704 7.84099 9.06604 7.82299C8.78104 7.32599 8.49404 6.82999 8.20804 6.33399C8.20504 6.32899 8.20304 6.32399 8.19904 6.31599Z" fill="white"/><path fill-rule="evenodd" clip-rule="evenodd" d="M4.258 4.77001C4.313 4.67301 4.366 4.58001 4.419 4.48701C4.577 4.20801 4.73 3.92801 4.894 3.65301C5.036 3.41601 5.248 3.26801 5.523 3.22701C5.74 3.19401 5.947 3.23201 6.138 3.34201C6.211 3.38501 6.271 3.44001 6.313 3.51501C6.427 3.71301 6.542 3.91001 6.657 4.10801C6.667 4.12501 6.669 4.13801 6.658 4.15601C6.375 4.64901 6.093 5.14401 5.811 5.63801C5.807 5.64401 5.804 5.65001 5.797 5.66101C5.285 5.36401 4.773 5.06801 4.258 4.77001Z" fill="white"/><path d="M19.644 16.76L15.205 20.067C15.205 20.067 14.77 20.402 14.659 20.666C14.628 20.739 14.625 20.802 14.636 20.856C14.664 20.989 14.817 21.052 14.935 20.986L20.965 17.585L19.644 16.76Z" fill="white"/><path d="M12.611 9.864C12.611 9.864 6.368 14.585 6.354 14.596C6.354 14.596 6.113 14.812 6.067 14.861C5.862 15.083 5.706 15.368 5.676 15.799C5.674 15.823 5.673 15.848 5.672 15.873L13.79 20.939C13.869 20.452 14.171 19.951 14.61 19.595C14.892 19.366 20.797 14.982 20.797 14.982L12.611 9.864ZM13.915 18.66C13.721 18.817 13.551 18.997 13.408 19.192L7.332 15.393C7.42 15.283 7.52 15.18 7.632 15.089C7.653 15.072 7.709 15.029 7.792 14.966C7.826 14.941 7.864 14.912 7.907 14.879L13.932 18.646C13.926 18.65 13.919 18.656 13.915 18.66ZM8.662 14.312L9.294 13.84L15.311 17.602L14.679 18.074L8.662 14.312ZM16.634 16.622L10.612 12.862L12.446 11.499L18.469 15.259L18.461 15.265L16.634 16.622Z" fill="white"/></svg>

<svg class="color-immutable" width="24" height="24" viewBox="0 0 24 24" fill="none" xmlns="http://www.w3.org/2000/svg"><g clip-path="url(#a)"><path d="M0 22.5v-21C0 .675.675 0 1.5 0h21c.825 0 1.5.675 1.5 1.5v21c0 .825-.675 1.5-1.5 1.5h-21C.675 24 0 23.325 0 22.5Z" fill="#2D327D"/><path fill-rule="evenodd" clip-rule="evenodd" d="M4.079 9.117a1.881 1.881 0 0 1-.044-.076l-.988-1.699a.293.293 0 0 1-.001-.317c.174-.295.345-.592.518-.889l.014-.026-.534-.315.001-.006h1.709c.019 0 .032.002.044.021l.863 1.48a.409.409 0 0 1 .013.025 103.46 103.46 0 0 1-.542-.312.295.295 0 0 0-.019.032l-.97 1.677a.492.492 0 0 0-.06.385c.002.006.001.012.002.019l-.006.001ZM9.072 4.072l.539-.311c-.007.016-.01.024-.015.031l-.84 1.464c-.008.015-.017.023-.036.023l-1.711.006-.025-.001c.182-.108.357-.21.535-.314l-.02-.035-.955-1.667a.489.489 0 0 0-.314-.253c-.004-.001-.007-.004-.018-.01h.04L8.185 3c.059 0 .118 0 .176.009.082.012.138.065.179.136l.522.912a.128.128 0 0 1 .01.015ZM7.88 9.948v.616l-.008.002-.014-.021-.841-1.46c-.009-.014-.013-.025-.003-.042l.857-1.494.009-.012v.622H9.849a.51.51 0 0 0 .372-.145.2.2 0 0 1 .019-.015.856.856 0 0 0-.02.038l-.971 1.688c-.029.05-.058.1-.094.145-.049.06-.119.081-.194.081l-.518-.002h-.521l-.042-.001Z" fill="#fff"/><path fill-rule="evenodd" clip-rule="evenodd" d="M6.59 8.153v1.782h-.036c-.415 0-.83.01-1.244-.003-.374-.011-.658-.186-.818-.535a.82.82 0 0 1-.078-.47.409.409 0 0 1 .046-.142c.115-.204.234-.405.35-.607.011-.019.023-.025.045-.025H6.59ZM8.199 6.316l1.537-.89.02.031c.208.357.424.71.622 1.073a.877.877 0 0 1 .045.805.948.948 0 0 1-.39.442.464.464 0 0 1-.244.067 51.68 51.68 0 0 0-.682 0c-.018 0-.03-.003-.041-.021-.285-.497-.572-.993-.858-1.489l-.009-.018ZM4.258 4.77l.161-.283c.158-.279.311-.559.475-.834a.857.857 0 0 1 .629-.426.925.925 0 0 1 .615.115.461.461 0 0 1 .175.173l.344.593c.01.017.012.03.001.048-.283.493-.565.988-.847 1.482l-.014.023-1.539-.891Z" fill="#fff"/><path d="m19.644 16.76-4.439 3.307s-.435.335-.546.599a.315.315 0 0 0-.023.19c.028.133.181.196.299.13l6.03-3.401-1.321-.825ZM12.611 9.864l-6.257 4.732s-.241.216-.287.265a1.457 1.457 0 0 0-.391.938l-.004.074 8.118 5.066c.079-.487.381-.988.82-1.344.282-.229 6.187-4.613 6.187-4.613l-8.186-5.118Zm1.304 8.796a2.863 2.863 0 0 0-.507.532l-6.076-3.799c.088-.11.188-.213.3-.304a9.453 9.453 0 0 1 .275-.21l6.025 3.767a.127.127 0 0 0-.017.014Zm-5.253-4.348.632-.472 6.017 3.762-.632.472-6.017-3.762Zm7.972 2.31-6.022-3.76 1.834-1.363 6.023 3.76-.008.006-1.827 1.357Z" fill="#fff"/></g><defs><clipPath id="a"><path fill="#fff" d="M0 0h24v24H0z"/></clipPath></defs></svg>
